X: 6
T: Kennet's Square Quickstep  v.3
P: piffero terzo b0028
O: Camp Dupont
%R: quickstep, march
F: http://ancients.sudburymuster.org/mus/ssp/pdf/belleisleF.pdf
Z: 2019 John Chambers <jc:trillian.mit.edu>
M: 2/4
L: 1/8
K: D
z |\
D3 C | D3 F | AA AA | D3 D |\
D3 C | D3 F | GE AA, | D2 z :: z |\
DF Ac | d2 D2 | DF Ac | dA FD |
DF Ac | d2 D2 | DF Ac | dA FD |\
A,C EA | DF Ad | A,C EA | DF Ad |\
A,C EA | DF Ad | GE AA, | DD D :|

%%slurgraces 1
%%graceslurs 1
%%center (drum bridge, governor king's march, 4 bars)


